packages/tokens/icons/commerce/size24Px.svg

<svg viewBox="0 0 24 24" fill="none" xmlns="http://www.w3.org/2000/svg" width="1em" height="1em"><path d="M9.49995 6.00006L4.16397 14.8934C3.79861 15.5023 4.00016 16.2947 4.61206 16.6552L11.6051 20.7751" stroke="currentColor" stroke-linecap="round"/><path d="M19.9182 9.54159L19.4279 9.63965L19.9182 9.54159L19.183 5.86556C19.0225 5.06328 18.2487 4.53757 17.4437 4.68394L13.3677 5.42505C12.9328 5.50413 12.555 5.771 12.335 6.1544L7.87267 13.9323C7.46461 14.6436 7.70332 15.5507 8.40861 15.969L13.3602 18.9055C14.087 19.3365 15.0262 19.0824 15.4366 18.3438L19.7585 10.5642C19.9314 10.2531 19.988 9.89061 19.9182 9.54159Z" stroke="currentColor" stroke-linecap="round"/><circle cx="1.5" cy="1.5" r="1" transform="matrix(0.86486 0.502013 -0.497984 0.867186 16 6)" stroke="currentColor"/></svg>

<svg xmlns="http://www.w3.org/2000/svg" fill="none" viewBox="0 0 24 24" width="1em" height="1em"><path stroke="currentColor" stroke-linecap="round" d="m9.5 6-5.336 8.893a1.282 1.282 0 0 0 .448 1.762l6.993 4.12"/><path stroke="currentColor" stroke-linecap="round" d="m19.918 9.542-.49.098.49-.098-.735-3.676a1.5 1.5 0 0 0-1.74-1.182l-4.075.741a1.5 1.5 0 0 0-1.033.73l-4.462 7.777a1.5 1.5 0 0 0 .536 2.037l4.951 2.937a1.5 1.5 0 0 0 2.077-.562l4.322-7.78a1.5 1.5 0 0 0 .16-1.022Z"/><circle cx="1.5" cy="1.5" r="1" stroke="currentColor" transform="matrix(.86486 .50201 -.49798 .86719 16 6)"/></svg>
